packages/icons/svg/Fill/droplet.svg

<svg fill="none" height="24" viewBox="0 0 24 24" width="24" xmlns="http://www.w3.org/2000/svg"><path clip-rule="evenodd" d="m12.0998 20.4003c-1.8517-.0166-3.58521-.7643-4.88305-2.1083-2.66677-2.7618-2.63077-7.2212.0803-9.94245l4.27755-4.2923c.1745-.17631.4126-.27416.6609-.27231.2483.00277.4846.10431.6572.28246l4.2084 4.36246c2.6667 2.76274 2.6307 7.22304-.0813 9.94154-1.3191 1.3228-3.0646 2.0437-4.9181 2.0289z" fill="#6b7280" fill-rule="evenodd"/></svg>

<svg width="24" height="24" viewBox="0 0 24 24" fill="none" xmlns="http://www.w3.org/2000/svg">
<g id="Icon/Fill/droplet">
<path id="Mask" fill-rule="evenodd" clip-rule="evenodd" d="M12.0998 20.4004C10.2481 20.3838 8.51461 19.6361 7.21676 18.2921C4.55 15.5302 4.586 11.0708 7.29707 8.3496L11.5746 4.05729C11.7491 3.88098 11.9872 3.78314 12.2355 3.78498C12.4838 3.78775 12.7201 3.88929 12.8928 4.06745L17.1011 8.42991C19.7678 11.1927 19.7318 15.653 17.0198 18.3714C15.7008 19.6942 13.9552 20.4151 12.1017 20.4004H12.0998Z" fill="#000000"/>
</g>
</svg>
